X: 33134
T: Princess Florence's
R: jig
M: 6/8
K: Dmajor
|:A|d2 A dfd|e3 efg|fed ABc|dAF DFA|
dcd dAf|e2 ^d efg|fed ABc|d3 d2:|
|:f|g2 g gbg|f2 d Afd|e2 c ABc|dcd fed|
gBg gfg|fdA Afd|e2 c ABc|d3- d2:|

